Sources/FrostedUI/Resources/Icons.xcassets/timeSkipRight32.imageset/time-skip-right-32.svg

<svg width="32" height="32" viewBox="0 0 32 32" fill="none" xmlns="http://www.w3.org/2000/svg" data-fui-icon="true">
  <path
    d="M15.876 2.25C7.49384 2.25011 2.25 8.63152 2.25 16C2.25 23.3685 7.49384 29.7499 15.876 29.75C21.601 29.75 26.2261 26.3733 28.2891 22.0742C28.4682 21.7008 28.3109 21.2534 27.9375 21.0742C27.5641 20.895 27.1167 21.0523 26.9375 21.4258C25.11 25.234 20.9922 28.25 15.876 28.25C8.41076 28.2499 3.75 22.6314 3.75 16C3.75 9.3686 8.41076 3.75011 15.876 3.75C22.9252 3.75 26.2082 8.7819 27.002 12.5H22.5713C22.1572 12.5001 21.8213 12.8358 21.8213 13.25C21.8213 13.6642 22.1572 13.9999 22.5713 14H27.5146C28.756 13.9998 29.75 12.9857 29.75 11.75V5.75C29.75 5.33579 29.4142 5 29 5C28.5858 5 28.25 5.33579 28.25 5.75V11.3301C27.0489 7.24416 23.3057 2.25 15.876 2.25ZM15.75 8.25C15.3358 8.25 15.0001 8.58583 15 9V16.5C15 16.7301 15.1061 16.9477 15.2871 17.0898L18.7861 19.8398C19.1118 20.0958 19.5839 20.0386 19.8398 19.7129C20.0954 19.3872 20.0385 18.916 19.7129 18.6602L16.5 16.1357V9C16.4999 8.58583 16.1642 8.25 15.75 8.25Z"
    fill="currentColor"
  />
</svg>

<svg xmlns="http://www.w3.org/2000/svg" width="32" height="32" fill="none" data-fui-icon="true" viewBox="0 0 32 32"><path fill="currentColor" d="M15.876 2.25C7.494 2.25 2.25 8.632 2.25 16s5.244 13.75 13.626 13.75c5.725 0 10.35-3.377 12.413-7.676a.75.75 0 1 0-1.352-.648c-1.827 3.808-5.945 6.824-11.061 6.824C8.411 28.25 3.75 22.631 3.75 16S8.41 3.75 15.876 3.75c7.05 0 10.332 5.032 11.126 8.75h-4.43a.75.75 0 0 0 0 1.5h4.943a2.243 2.243 0 0 0 2.235-2.25v-6a.75.75 0 0 0-1.5 0v5.58c-1.201-4.086-4.944-9.08-12.374-9.08m-.126 6A.75.75 0 0 0 15 9v7.5c0 .23.106.448.287.59l3.5 2.75a.75.75 0 0 0 .926-1.18L16.5 16.136V9a.75.75 0 0 0-.75-.75"/></svg>
